X:1
T:Title
%%score 1 2
L:1/8
Q:1/4=115
M:4/4
K:Ab
V:1 treble nm="Grand Piano, Soprano"
V:2 bass nm="Choir Pad, Royapettah, E. G. Masters"
V:1
 [CE]2 [Ec]2 [Ec]2 [CA]2 | [CA]2 [DB]2 [DA]4 | [DF]2 [CE]2 [CA]2 [CA]2 | [Ec]2 [EB]6 | %4
w: By~E.~G.~Masters,~1897 * * *||||
 [Ed]2 [Ec]2 [Ec]2 [DB]2 | [Ec]2 [FA]2 [DF]4 | [DF]2 [CE]2 [CA]2 [DG]2 | [DB]2 [CA]6 | %8
w: ||||
 [CA]2 [DB]2 [DB]2 [CA]2 | [DB]2 [Ec]2 [Ec]4 | [Ec]2 [Fd]2 [DF]2 [=DG]2 | [=DF]2 E6 | %12
w: ||||
 E2 [Ec]2 [Ec]2 [DB]2 | [Ec]2 [_Ge]2 [Fd]4 | [=Ec]2 [_EB]2 [CA]2 [Ec]2 | [DB]2 [CA]6- | %16
w: ||||
 [CA]2 z2 z4 |] %17
w: |
V:2
 [A,,A,]2 [A,,A,]2 [A,,A,]2 [A,,E,]2 | [A,,E,]2 [D,F,]2 [D,F,]4 | %2
 [D,A,]2 [A,,A,]2 [A,,A,]2 [A,,A,]2 | [A,,A,]2 [E,G,]6 | [G,B,]2 A,2 [A,,A,]2 [A,,A,]2 | %5
 [A,,A,]2 [D,A,]2 [D,A,]4 | [D,A,]2 [E,A,]2 [E,A,]2 [E,B,]2 | [E,G,]2 [A,,A,]6 | %8
 [A,,A,]2 [E,G,]2 [E,G,]2 [F,A,]2 | [E,G,]2 A,2 A,4 | A,2 [D,A,]2 [D,A,]2 [B,,B,]2 | %11
 [B,,A,]2 [E,G,]6 | [E,G,]2 [A,,A,]2 [A,,A,]2 [A,,A,]2 | [A,,A,]2 [D,A,]2 [D,A,]4 | %14
 [D,A,]2 [E,G,]2 [E,G,]2 [E,A,]2 | [E,G,]2 [A,,A,]6- | [A,,A,]2 z2 z4 |] %17

